X:1
T:Crock of gold
C:Trad.
R:Reel
S:Guillaume Le Bigot (session au Oan's pub)
D:Lunasa: Otherworld (1999)
M:2/2
L:1/8
K:G
|: "G" B2dB BAGE | "Am" GGGA GED2 | "D" DEGA "G" BGGG | Be"C"dB "D"eAAA |
   "G" B2dB BAGE | "Am" GGGA GED2 | "G"ggg"G"d eg"C"d2 | DE"D"GA "G"BGG2 :|
|: "Am" eaaa "Em"bagb | "D"a2ba "C"ged2 | "G"gedB GB"G"Bd | eg"C"dB "D"BAAG |
   "Am" Eaaa "Em"bagb | "D"a2ba "C"ged2 | "G"ggg"G"d eg"C"d2 | DE"D"GA "G"BGG2 :|

